X:1
T:Puer natus est
T:Puer natus est
T:Cristobal Morales (15..-1553)
C:Cristobal Morales (15..-1553)
%%score [ 1 2 3 ]
L:1/8
Q:1/4=120
M:2/2
K:F
V:1 treble nm="Soprano"
V:2 treble nm="Alto"
V:3 bass nm="Bass"
V:1
 F4 c4- | c2 c2 d2 c2 | (ABcA) B2 (c2 | F2 f4) (ed) | (e2 c2 A2 c2- | cB A2- AG/F/ G2 | A2 c4 BA | %7
w: Pu- *|* er na- tus|est _ _ _ _ no-|* * bis, _|no- * * *|||
 B4 c4- | c4) A4- | A4 z2 F2 | c6 B2 | d2 c2 (ABcA) | B2 A4 G2 | A2 c2 d2 f2 | (e6 d2) | %15
w: |* bis,|_ et|fi- li-|us da- tus _ _ _|est no- bis,|et fi- li- us|da- *|
 c2 d3 c (c2- | c2 B2 c4- | c2) A2 x4 | z2 f4 e2 | d4 B2 c2 | d2 (B2 cBAG | FGAF B4- | B2 A2 G4) | %23
w: tus est _ no-||* bis,|Glo- ri-|a in ex-|cel- sis De- * * *|||
 F2 f4 e2 | c2 e2 d4 | c4 z2 c2 | B2 A2 F2 B2- | B2 A2 G2 F2 | (GF F4 E2) | F2 c2 d2 e2 | %30
w: o, et in|ter- * ra|pax ho-|mi- ni- bus bo-|* nae vo- lun-|ta- * * *|tis. Al- le- lu-|
 (f3 e/d/ c4) | z2 F2 G2 A2 | (B3 A/G/ F2) A2 | G2 (F2- FE/D/ E2) | F2 c4 B2 | A2 G2 B2 A2 | %36
w: ja, _ _ _|al- le- lu-|ja _ _ _ al-|le- lu- * * * *|ja Ver- bum|ca- ro fa- ctum|
 G4 z2 A2 | F2 F2 (GABG) | A2 c2 B2 A2 | G4 G2 (A2 | B4 A3 G/F/) | E4 z2 G2 | (A2 G2- GF F2- | %43
w: est, et|ha- bi- ta- * * *|vit in no- *|bis in no-||bis in|no- * * * *|
 F2 E2) F2 c2 | d2 e2 (f3 e/d/ | c4) z2 F2 | G2 A2 B3 A/G/ | F2 A2 G2 (F2- | F2 E2) F4 | %49
w: * * bis Al-|le- lu- ja, _ _|_ al-|le- lu- ja _ _|_ al- le- lu-|* * ja|
 z2 c2 d2 e2 | (f3 e/d/ c4) | z2 F2 G2 A2 | (B3 A/)G/ F2 A2 | G2 (F2- FE/D/ E2) | F8- | F8- | %56
w: al- le- lu-|ja _ _ _|al- le- lu-|ja _ _ _ al-|le- lu- * * * *|ja.|_|
 !fermata!F8 |] %57
w: |
V:2
 z8 | C4 F4- | F2 F2 G2 A2- | A2 GF A2 G2 | (EFGE F2 E2 | C4 D4) | E2 C2 G4- | G2 G2 A2 G2 | %8
w: |Pu- *|* er na- *|* * * tus est|no- * * * * *||bis, et fi-|* li- us da-|
 (EFGE F2) (E2- | EDEC) D4 | E4 z2 E2 | F2 E2 (CDEC | D2) F4 E2 | D2 (C2 CB,/A,/) B,2 | %14
w: tus _ _ _ _ est|_ _ _ _ no-|bis, et|fi- li- us _ _ _|_ da- tus|est no- * * * bis,|
 C2 G2 G2 G2 | E2 G2 F2 E2 | D4 C4 | z2 F4 E2 | D4 C4 | B,2 D4 C2 | B,4 A,2 (C2 | %21
w: et fi- li- us|da- tus est _|no- bis,|Glo- ri-|a in|ex- cel- sis|De- o, De-|
 D2 F2- FE/D/ E2) | F4 z2 C2- | C2 C2 D2 (E2- | EFGE F2 G2) | E2 A2 G2 F2 | D2 F4 F2 | %27
w: |o, et|_ in ter- ra|_ _ _ _ _ _|pax ho- mi- ni-|bus bo- nae|
 F3 E (DC) (D2- | D2 C2 B,3 A,/G,/) | A,4 z2 C2 | D4 E2 (F2- | FEDC B,2 A,2 | G,2) D4 D2 | %33
w: vo- * lun- * ta-||tis. Al-|le- lu- ja,|_ _ _ _ _ _|* al- le-|
 (B,2 A,2 G,4 | F,4) z2 F2- | F2 E2 D2 C2 | E2 D2 C4 | z2 C2 D3 E | F3 E D2 C2 | (D2 E2 ED/C/ F2 | %40
w: lu- * *|ja Ver-|* bum ca- ro|fa- ctum est,|et ha- bi-|ta- * vit in|no- * * * * *|
 FE/D/ E2) F2 F,2 | G,2 A,2 B,2 C2- | C2 B,2 (A,3 G,/F,/) | G,4 F,4 | z2 C2 D4 | E2 (F2- FEDC | %46
w: * * * * bis et|ha- bi- ta- *|* vit in * *|no- bis|Al- le-|lu- ja, _ _ _ _|
 B,2 A,2 G,2) D2- | D2 D2 (B,2 A,2 | G,4 F,4-) | F,4 z2 C2 | D4 E2 (F2- | FEDC B,2 A,2 | %52
w: _ _ _ al-|* le- lu- *|* ja|_ al-|le- lu- ja|_ _ _ _ _ _|
 G,2) D4 D2 | (B,2 A,2 G,4) | (A,3 B, CA,) D2- | D2 C2 D4 | !fermata!C8 |] %57
w: * al- le-|lu- * *|ja _ _ _ al-|* le- lu-|ja.|
V:3
 z8 | z8 | z8 | F,4 C4- | C2 C2 D2 C2 | (A,B,CA, B,4) | A,4 G,4 | z2 G,2 C4- | C2 C2 D2 C2 | %9
w: |||Pu- *|* er na- tus|est _ _ _ _|no- bis,|et fi-|* li- us da-|
 A,B,CA, B,4 | (A,3 G, F,2 E,2) | D,2 A,2 A,2 A,2 | G,2 F,2 D,2 E,2 | F,3 E, D,4 | C,4 z2 G,2 | %15
w: tus _ _ _ est|no- * * *|bis, et fi- li-|us da- * tus|est _ no-|bis, et|
 A,2 G,2 A,4 | (F,2 G,2 A,3 B,) | C2 (D3 C) (C2- | C2 B,2) C4 | z2 B,4 A,2 | G,4 F,2 F,2 | %21
w: fi- li- us|da- * * *|tus est _ no-|* * bis,|Glo- ri-|a in ex-|
 B,2 A,2 (G,4- | F,4 C4) | F,4 z2 C2- | C2 C2 B,2 G,2 | (A,3 B, C2) F,2 | G,2 A,2 B,4 | %27
w: cel- sis De-||o, et|_ in ter- ra|pax _ _ ho-|mi- ni- bus|
 F,4 G,2 B,2- | B,2 A,2 G,4 | F,2 A,2 B,2 A,2 | D,2 B,2 A,2 F,2 | (B,3 A, G,2 F,2 | G,4) D,4 | %33
w: bo- nae vo-|* lun- ta-|tis. Al- le- lu-|ja, al- le- lu-|ja _ _ _|_ al-|
 _E,2 F,2 C,4 | F,3 G, A,2 B,2 | F,2 C2 z2 C2- | C2 B,2 A,3 G, | B,2 A,2 G,4 | z2 F,2 G,2 A,2 | %39
w: le- lu- ja|al- le- lu- *|ja _ Ver-|* bum ca- ro|fa- ctum est,|et ha- bi-|
 B,2 C3 B, A,2 | G,4 F,4 | C,4 D,2 E,2 | F,2 G,2 D,2 F,2 | C,4 C2 A,2 | B,2 A,2 D,2 B,2 | %45
w: ta- * vit in|no- bis|et ha- bi-|ta- vit in no-|bis Al- le-|lu- * ja, al-|
 A,2 F,2 (B,3 A, | G,2 F,2 G,4) | D,4 _E,2 F,2 | (C,4 C4) | z2 A,2 B,2 A,2 | D,2 B,2 A,2 F,2 | %51
w: le- lu- ja _|_ _ _|al- le- lu-|ja _|al- le- lu-|ja al- le- lu-|
 (B,3 A, G,2 F,2 | G,4) D,4 | _E,2 F,2 C,4 | (F,3 G, A,F, B,2 | F,2) F,2 B,4 | !fermata!F,8 |] %57
w: ja _ _ _|_ al-|le- lu- ja|al- * * * *|* le- lu-|ja.|

